modules/hawcons-filled/icons/icon-140-box.svg

<?xml version="1.0" encoding="UTF-8" standalone="no"?>
<svg width="32px" height="32px" viewBox="0 0 32 32" version="1.1" xmlns="http://www.w3.org/2000/svg" xmlns:xlink="http://www.w3.org/1999/xlink" xmlns:sketch="http://www.bohemiancoding.com/sketch/ns">
    <!-- Generator: Sketch 3.0.3 (7891) - http://www.bohemiancoding.com/sketch -->
    <title>icon 140 box</title>
    <desc>Created with Sketch.</desc>
    <defs></defs>
    <g id="Page-1" stroke="none" stroke-width="1" fill="none" fill-rule="evenodd" sketch:type="MSPage">
        <g id="icon-140-box" sketch:type="MSArtboardGroup" fill="#929292">
            <path d="M3,12 L8,4 L23,4 L28,12 L28,13 L28,28 L3,28 L3,12 L3,12 Z M26.7750244,12 L22.4000244,5 L8.59997559,5 L4.22497559,12 L26.7750244,12 L26.7750244,12 Z M12.9973917,18 C11.8942627,18 11,18.8877296 11,20 C11,21.1045695 11.8958578,22 12.9973917,22 L18.0026083,22 C19.1057373,22 20,21.1122704 20,20 C20,18.8954305 19.1041422,18 18.0026083,18 L12.9973917,18 L12.9973917,18 Z" id="box" sketch:type="MSShapeGroup"></path>
        </g>
    </g>
</svg>

<svg width="32" height="32" viewBox="0 0 32 32" xmlns="http://www.w3.org/2000/svg"><path d="M3 12l5-8h15l5 8v16H3V12zm23.775 0L22.4 5H8.6l-4.375 7h22.55zm-13.778 6A1.994 1.994 0 0 0 11 20a2 2 0 0 0 1.997 2h5.006A1.994 1.994 0 0 0 20 20a2 2 0 0 0-1.997-2h-5.006z" fill="#929292" fill-rule="evenodd"/></svg>
